svg/fluentui-system-icons/ic_fluent_dual_screen_status_bar_24_filled.svg

<svg width="24" height="24" viewBox="0 0 24 24" fill="none" xmlns="http://www.w3.org/2000/svg">
<path d="M20.2451 4.00439C21.2116 4.00439 21.9951 4.78789 21.9951 5.75439V18.2495C21.9951 19.216 21.2116 19.9995 20.2451 19.9995H12.9976C12.9108 19.9995 12.8255 19.9932 12.7421 19.981L12.742 4.02292C12.8254 4.01071 12.9108 4.00439 12.9976 4.00439H20.2451ZM10.9976 4.00195C11.0809 4.00195 11.1629 4.00778 11.2431 4.01905L11.2428 19.98C11.1627 19.9913 11.0808 19.9971 10.9976 19.9971H3.75C2.7835 19.9971 2 19.2136 2 18.2471V5.75195C2 4.78545 2.7835 4.00195 3.75 4.00195H10.9976ZM19.7499 6.50073H15.2483C14.8341 6.50073 14.4983 6.83652 14.4983 7.25073C14.4983 7.63043 14.7805 7.94423 15.1465 7.99389L15.2483 8.00073H19.7499C20.1641 8.00073 20.4999 7.66495 20.4999 7.25073C20.4999 6.87104 20.2178 6.55724 19.8517 6.50758L19.7499 6.50073Z" fill="#212121"/>
</svg>

<svg xmlns="http://www.w3.org/2000/svg" width="24" height="24"><path d="M20.245 4.004c.967 0 1.75.784 1.75 1.75V18.25a1.75 1.75 0 0 1-1.75 1.75h-7.247c-.087 0-.172-.006-.256-.018V4.023c.083-.012.169-.019.256-.019h7.247Zm-9.247-.002a1.8 1.8 0 0 1 .245.017V19.98a1.8 1.8 0 0 1-.245.017H3.75A1.75 1.75 0 0 1 2 18.247V5.752c0-.967.784-1.75 1.75-1.75h7.248ZM19.75 6.5h-4.502a.75.75 0 0 0-.101 1.493l.101.007h4.502a.75.75 0 0 0 .102-1.493L19.75 6.5Z"/></svg>
